X:16
T:Sporting Nell
R:reel
S:Clare FM
D:Kilfenora Ceili Band
Z:psc -  http://www.cranfordpub.com
L:1/8
Q:333
M:C|
K:Ddor
c|:AD D/D/D A2 dc|AcGc EcGc|AD D/D/D A2 dc|[1AcGE EDDB:|[2AcGE EGAB||
||c2 gc acgc|c2 gc AddB|c2 gc acgc|AcGE EGAB|
c2 gc acgc|c2 gc Adde|~f3 d efed|cAGc Add|]
